synths/sDASH.svg

<svg width="480" height="480" viewBox="0 0 480 480" fill="none" xmlns="http://www.w3.org/2000/svg"><mask id="mask0-440754" maskUnits="userSpaceOnUse" x="0" y="0" width="480" height="480"><circle cx="240" cy="240" r="240" fill="url(#paint0_linear-294058)"/></mask><g mask="url(#mask0-440754)"><circle cx="240" cy="240" r="240" fill="#31D8A4"/><circle cx="240" cy="240" r="208" fill="#fff"/></g><circle cx="240" cy="240" r="184" fill="#0E052F"/><path d="M240 424c101.62 0 184-82.38 184-184S341.62 56 240 56 56 138.38 56 240s82.38 184 184 184z" fill="#008CE7"/><path d="M275.489 148.045h-83.674l-6.923 38.72 75.463.115c37.157 0 48.185 13.49 47.829 35.88-.161 11.477-5.164 30.889-7.28 37.145-5.715 16.79-17.491 35.903-61.628 35.846l-73.347-.046-6.923 38.766h83.455c29.429 0 41.964-3.438 55.2-9.545 29.371-13.547 46.863-42.561 53.889-80.431 10.419-56.35-2.576-96.45-76.072-96.45h.011z" fill="#fff"/><path d="M237.779 237.677c2.726-11.328 3.588-15.87 3.588-15.87h-85.629c-21.896 0-25.024 14.26-27.105 22.885-2.726 11.281-3.588 15.881-3.588 15.881h85.64c21.885 0 25.013-14.26 27.094-22.896z" fill="#fff"/><defs><linearGradient id="paint0_linear-294058" x1="240" y1="0" x2="240" y2="701.818" gradientUnits="userSpaceOnUse"><stop stop-color="#08021E"/><stop offset="1" stop-color="#1F0777"/></linearGradient></defs></svg>

<svg width="480" height="480" viewBox="0 0 480 480" fill="none" xmlns="http://www.w3.org/2000/svg">
<mask id="mask0-440754" mask-type="alpha" maskUnits="userSpaceOnUse" x="0" y="0" width="480" height="480">
<circle cx="240" cy="240" r="240" fill="url(#paint0_linear-294058)"/>
</mask>
<g mask="url(#mask0-440754)">
<circle cx="240" cy="240" r="240" fill="#31D8A4"/>
<circle cx="240" cy="240" r="208" fill="white"/>
</g>
<circle cx="240" cy="240" r="184" fill="#0E052F"/>
<path d="M240 424C341.62 424 424 341.62 424 240C424 138.38 341.62 56 240 56C138.38 56 56 138.38 56 240C56 341.62 138.38 424 240 424Z" fill="#008CE7"/>
<path d="M275.489 148.045H191.815L184.892 186.765L260.355 186.88C297.512 186.88 308.54 200.37 308.184 222.76C308.023 234.237 303.02 253.649 300.904 259.905C295.189 276.695 283.413 295.808 239.276 295.751L165.929 295.705L159.006 334.471H242.461C271.89 334.471 284.425 331.033 297.661 324.926C327.032 311.379 344.524 282.365 351.55 244.495C361.969 188.145 348.974 148.045 275.478 148.045H275.489Z" fill="white"/>
<path d="M237.779 237.677C240.505 226.349 241.367 221.807 241.367 221.807H155.738C133.842 221.807 130.714 236.067 128.633 244.692C125.907 255.973 125.045 260.573 125.045 260.573H210.685C232.57 260.573 235.698 246.313 237.779 237.677Z" fill="white"/>
<defs>
<linearGradient id="paint0_linear-294058" x1="240" y1="0" x2="240" y2="701.818" gradientUnits="userSpaceOnUse">
<stop stop-color="#08021E"/>
<stop offset="1" stop-color="#1F0777"/>
</linearGradient>
</defs>
</svg>
